X:36
T:The Dairymaid
R:Reel
S:Paddy Canny and Peter O'Loughlin, Clare (fiddles)
N:As played (P O'L much the louder)
Z:Bernie Stocks
M:4/4
K:D
AF(3.F.F.F dFBF | AFDE FEE2 | AF(3.F.F.F BFAF | EFDE FDD2 :| 
~d3f abag | fedf eB~B2 | ~d3f abag | faeg fd~d2 | 
dfaf g2eg | f2df eB~B2 | dfaf gbag | faeg fd~d2 ||
<end>
<start>
